naomi/logo.svg

<?xml version="1.0" encoding="utf-8"?>
<!-- Generator: Adobe Illustrator 24.2.1, SVG Export Plug-In . SVG Version: 6.00 Build 0)  -->
<svg version="1.1" id="Layer_1" xmlns="http://www.w3.org/2000/svg" xmlns:xlink="http://www.w3.org/1999/xlink" x="0px" y="0px"
	 viewBox="0 0 2369.5 477.5" style="enable-background:new 0 0 2369.5 477.5;" xml:space="preserve">
<style type="text/css">
	.st0{fill-rule:evenodd;clip-rule:evenodd;}
	.st1{fill-rule:evenodd;clip-rule:evenodd;fill:#CC2229;}
</style>
<g>
	<path class="st0" d="M406.2,446.6V10.7h-72.4L335,291L0,14.3l1.2,437.1h63V168.7L406.2,446.6L406.2,446.6z M452.5,453.7l55.8-95
		h-51.1v-66.5h84.3L694.8,14.3l244.7,439.4h-86.7l-49.9-95H585.5l-52.3,95L452.5,453.7L452.5,453.7z M615.2,291H772l-78.4-143.7
		L615.2,291z M1559.5,453.7h-71.3V15.4l242.3,281.5L1975.2,9.5v444.2h-76L1898,215l-168.7,203.1l-169.8-201.9V453.7L1559.5,453.7z
		 M2112.9,453.7l1.2-448.9h72.4l-1.2,448.9H2112.9L2112.9,453.7z M2253.1,78.4v-63h-20.2V3.6h55.8v11.9h-21.4v63L2253.1,78.4
		L2253.1,78.4z M2292.3,77.2V3.6h20.2l21.4,46.3L2354,3.6h15.5v74.8h-14.3V29.7L2335,78.4l-28.5-48.7v48.7L2292.3,77.2L2292.3,77.2z
		"/>
	<path class="st1" d="M937.1,238.7C937.1,106.9,1044,0,1175.9,0c131.8,0,238.7,106.9,238.7,238.7s-106.9,238.7-238.7,238.7
		C1044,477.5,937.1,370.6,937.1,238.7z M1175.9,406.2c92.6,0,167.4-74.8,167.4-167.5c0-91.4-74.8-166.3-167.4-166.3
		c-91.5,0-166.3,74.8-166.3,166.3C1009.6,331.4,1084.4,406.2,1175.9,406.2z"/>
</g>
</svg>

<svg id="Layer_1" data-name="Layer 1" xmlns="http://www.w3.org/2000/svg" viewBox="0 0 2369.5 477.4"><path d="M406.2,446.6V10.7H333.8L335,291,0,14.3,1.2,451.4h63V168.7l342,277.9Zm46.3,7.1,55.8-95H457.2V292.2h84.3L694.8,14.3,939.5,453.7H852.8l-49.9-95H585.5l-52.3,95ZM615.2,291H772L693.6,147.3Zm944.3,162.7h-71.3V15.4l242.3,281.5L1975.2,9.5V453.7h-76L1898,215,1729.3,418.1,1559.5,216.2V453.7Zm553.4,0,1.2-448.9h72.4l-1.2,448.9ZM2253.1,78.4v-63h-20.2V3.6h55.8V15.5h-21.4v63l-14.2-.1Zm39.2-1.2V3.6h20.2l21.4,46.3L2354,3.6h15.5V78.4h-14.3V29.7L2335,78.4l-28.5-48.7V78.4l-14.2-1.2Z" style="fill-rule:evenodd"/><path d="M937.1,238.7C937.1,106.9,1044,0,1175.9,0s238.7,106.9,238.7,238.7-106.9,238.7-238.7,238.7S937.1,370.6,937.1,238.7Zm238.8,167.5a167.23,167.23,0,0,0,167.4-167.5c0-91.4-74.8-166.3-167.4-166.3-91.5,0-166.3,74.8-166.3,166.3C1009.6,331.4,1084.4,406.2,1175.9,406.2Z" style="fill:#cc2229;fill-rule:evenodd"/></svg>
